!!!!SEGMENT: pl-gd--ee-2628--005-009_stabile-annibale--il-primo-libro-de-madrigali-a-cinque-voci-solo-soletto.krn
!!!cenid: 15xx:1054
!!!COM: Stabile, Annibale
!!!COM-rismID: pe30009662
!!!CDT: ~1535-1595/04
!!!CNT: Italian
!!!GTL: Il primo libro de madrigali a cinque voci
!!!OTL: Solo soletto
!!!OMV: 009
!!!PDT: 1586
!!!AGN:
!!!SMS-siglum: PL-GD
!!!SMS-shelfmark: Ee 2628
!!!SMS-variant:
!!!SMS-altvar:
!!!SMS-shelfwork: 005-009 G
!!!NIFC-rismSourceID: 990060531
!!!NIFC-islandoraID: pl-gd:66139
!!!URL-pdf-islandora: https://repozytorium.nifc.pl/islandora/object/pl-gd%3A66139/datastream/PDF/view
!!!URL-scan: https://polish.musicsources.pl/pl/lokalizacje/galeria/klocki-introligatorskie/673 @EN{Scan on Polish Music Sources Website} @PL{Skany w portalu Dziedzictwo Muzyki Polskiej w otwartym dostępie}
!!!ONB-nifc: UWAGA: Canto: s. 78-89, Tenore: s. 233-245, Basso: s. 390-401, Quinto: s. 712-723. Dla głosu Alto proszę skorzystać z https://pbc.gda.pl/dlibra/doccontent?id=79410, str. 25-48. Uwaga: utwory podzielone wg spisu treści dostępnych na końcu ksiąg – proszę sprawdzać sąsiednie tytuły. Głos Quinto proszę umieszczać wg ambitusu (może się różnić w zależności od utworu).
!!!AIN: 1 alto 1 bass 2 soprn 1 tenor
!!!key: g:dor
**kern	**text	**kern	**text	**kern	**text	**kern	**text	**kern	**text
*part5	*part5	*part4	*part4	*part3	*part3	*part2	*part2	*part1	*part1
*staff5	*staff5	*staff4	*staff4	*staff3	*staff3	*staff2	*staff2	*staff1	*staff1
*I"BASSO	*	*I"TENORE	*	*I"ALTO	*	*I"CANTO	*	*I"QVINTO	*
*I'B	*	*I'T	*	*I'A	*	*I'S	*	*I'V 5	*
*Ibass	*	*Itenor	*	*Ialto	*	*Isoprn	*	*Isoprn	*
*ICvox	*	*ICvox	*	*ICvox	*	*ICvox	*	*ICvox	*
*clefF3	*	*clefC3	*	*clefC2	*	*clefG2	*	*clefG2	*
*k[b-]	*	*k[b-]	*	*k[b-]	*	*k[b-]	*	*k[b-]	*
*g:dor	*	*g:dor	*	*g:dor	*	*g:dor	*	*g:dor	*
*M2/1	*	*M2/1	*	*M2/1	*	*M2/1	*	*M2/1	*
*met(C)	*	*met(C)	*	*met(C)	*	*met(C)	*	*met(C)	*
=1-	=1-	=1-	=1-	=1-	=1-	=1-	=1-	=1-	=1-
!LO:TX:t=P:problem:zdwojony znak przykluczowy	!	!	!	!	!	!	!	!	!
!LO:TX:b:t=SOlo Soletto	!	!	!	!	!	!	!	!	!
!	!	!LO:TX:b:t=SOlo Soletto	!	!	!	!	!	!	!
!	!	!	!	!LO:TX:t=P:problem:zdwojony znak przykluczowy	!	!	!	!	!
!	!	!	!	!LO:TX:b:t=SOlo Soletto	!	!	!	!	!
!	!	!	!	!	!	!LO:TX:b:t=SOlo Soletto	!	!	!
00r	.	0r	.	0r	.	0r	.	2dd\	SO-
.	.	.	.	.	.	.	.	4b-/	-lo
.	.	.	.	.	.	.	.	4cc\	ſo-
.	.	.	.	.	.	.	.	2dd\	-let-
.	.	.	.	.	.	.	.	2dd\	-to
=2-	=2-	=2-	=2-	=2-	=2-	=2-	=2-	=2-	=2-
.	.	4.B-/	Me	4.b-\	Me	4.dd\	Me	4.ff\	Me
.	.	8B-/	ne	8b-\	ne	8dd\	ne	8ff\	ne
.	.	4B-/	vo	4b-\	vo	4dd\	vo	4ff\	vo
.	.	4c/	pian-	4g\	pian-	4cc\	pian-	4ee\	pian-
.	.	2d\	-gen-	2f\	-gen-	2a/	-gen-	2dd\	-gen-
.	.	2A/	-do	2e/	-do	2a/	-do	2cc#X\	-do
=3-	=3-	=3-	=3-	=3-	=3-	=3-	=3-	=3-	=3-
*	*	*	*ij	*	*ij	*	*ij	*	*
4.D/	Me	4.A/	Me	4.d/	Me	4.f#X/	Me	4.dd\	Me
8D/	ne	8A/	ne	8d/	ne	8f#/	ne	8dd\	ne
!	!	!LO:N:acc=#	!	!	!	!	!	!	!
4G\	vo	4Bn/	vo	4d/	vo	4g/	vo	4dd\	vo
4G\	pian-	4B/	pian-	4d/	pian-	4g/	pian-	4dd\	pian-
!	!	!	!	!	!	!	!	!LO:SIC:v:t=custos cc	!
!	!	!	!	!	!	!	!	!LO:LB:g=original	!
1C	-gen-	2c/	-gen-	1e-X	-gen-	1g	-gen-	1ccny	-gen-
.	.	2G/	-do	.	.	.	.	.	.
*	*	*	*Xij	*	*	*	*	*	*
*	*	*	*	*	*	*	*	*	*
=4-	=4-	=4-	=4-	=4-	=4-	=4-	=4-	=4-	=4-
!	!	!	!	!	!	!	!	!LO:N:acc=#	!
1G	-do	00r	.	2d/	-do	1g	-do	4bn\	-do
*	*	*	*	*	*Xij	*	*Xij	*	*
.	.	.	.	.	.	.	.	4dd\	A
.	.	.	.	4r	.	.	.	4.dd\	ſe-
.	.	.	.	4g\	A	.	.	.	.
.	.	.	.	.	.	.	.	8cc\	-gui-
!	!	!	!	!LO:SIC:v:t=custos g	!	!LO:SIC:v:t=custos gg	!	!	!
!	!	!	!	!LO:LB:g=original	!	!LO:LB:g=original	!	!	!
1r	.	.	.	4.g\	ſe-	4r	.	4.b/	-tar
.	.	.	.	.	.	4gg\	A	.	.
.	.	.	.	8f\	-gui-	.	.	8a/	co-
.	.	.	.	4.eny/	-tar	4.gg\	ſe-	4g/	-lei
.	.	.	.	.	.	.	.	4g/	che
.	.	.	.	8d/	co-	8ff\	-gui-	.	.
=5-	=5-	=5-	=5-	=5-	=5-	=5-	=5-	=5-	=5-
0r	.	.	.	2c/	-lei	4.ee\	-tar	4.cc\	mi
.	.	.	.	.	.	8dd\	co-	8b-y/	.
.	.	.	.	2c/	che	4cc\	-lei	4a/	.
.	.	.	.	.	.	4b-/	che	4g/	diſ-
.	.	.	.	4d/	mi	4a/	mi	4f#X/	-trug-
.	.	.	.	4e-X/	di-	4g/	d(i)-	2g/	.
.	.	.	.	2d/	-ſtrug-	2a/	-ſtrug-	.	.
.	.	.	.	.	.	.	.	4f#X/	.
!	!	!LO:SIC:v:t=custos G	!	!	!	!	!	!	!
!	!	!LO:LB:g=original	!	!	!	!	!	!	!
=6-	=6-	=6-	=6-	=6-	=6-	=6-	=6-	=6-	=6-
2r	.	0r	.	1G	-ge	1g	-ge	2g/	-ge
2G\	Che	.	.	.	.	.	.	2g/	Che
2G\	quan-	.	.	1d	Che	0r	.	2b-/	quan-
!LO:SIC:v:t=custos F	!	!	!	!	!	!	!	!LO:SIC:v:t=custos a	!
!LO:LB:g=original	!	!	!	!	!	!	!	!LO:LB:g=original	!
4F#X/	-to	.	.	.	.	.	.	4a/	-to
2G\	piu	.	.	.	.	.	.	2b-/	piu
=7-	=7-	=7-	=7-	=7-	=7-	=7-	=7-	=7-	=7-
.	.	1r	.	2e-X/	quan-	.	.	.	.
4A\	la	.	.	.	.	.	.	4cc\	la
!LO:N:acc=#	!	!	!	!	!	!	!	!	!
4Bn\	ſe-	.	.	4d/	-to	.	.	4dd\	ſe-
4c\	-guo	.	.	2e-X/	piu	.	.	4g/	-guo
4C/	piu	2r	.	.	.	2g/	Che	2ee-X\	piu
4C/	mi	.	.	4c/	la	.	.	.	.
2G\	fug-	4r	.	2g\	ſe-	2b-/	quan-	2dd\	mi
.	.	4G/	Che	.	.	.	.	.	.
=8-	=8-	=8-	=8-	=8-	=8-	=8-	=8-	=8-	=8-
2D/	-ge	2d\	quan-	2f\	-guo	4a/	-to	2.dd\	fug-
.	.	.	.	.	.	2b-/	piu	.	.
2r	.	4G/	-to	2g\	piu	.	.	.	.
.	.	2c/	piu	.	.	4cc\	la	4g/	-ge
1r	.	.	.	2G/	nu	2dd\	ſe-	2.g/	piu
!	!	!LO:N:acc=#	!	!	!	!	!	!	!
.	.	4Bn/	la	.	.	.	.	.	.
.	.	4c/	ſe-	4.c/	fug-	4cc\	-guo	.	.
.	.	4A/	-guo	.	.	2cc\	piu	4fny/	mi
.	.	.	.	8d/	.	.	.	.	.
!	!	!	!	!LO:SIC:v:t=custos e	!	!	!	!	!
!	!	!	!	!LO:LB:g=original	!	!	!	!	!
=9-	=9-	=9-	=9-	=9-	=9-	=9-	=9-	=9-	=9-
2r	.	2G/	piu	4e-X/	.	.	.	2g/	fug-
.	.	.	.	8d/	.	4b-/	mi	.	.
.	.	.	.	8c/	.	.	.	.	.
!	!	!	!	!	!	!LO:SIC:v:t=custos a	!	!	!
!	!	!	!	!	!	!LO:LB:g=original	!	!	!
2D/	Che	2A/	Che	2d/	.	2a/	fug-	2dd\	-ge
2G\	quan-	2B-y/	quan-	1d	ge	2g/	-ge	1r	.
4F#X/	-to	4A/	-to	.	.	2r	.	.	.
2G\	piu	2B-/	piu	.	.	.	.	.	.
=10-	=10-	=10-	=10-	=10-	=10-	=10-	=10-	=10-	=10-
.	.	.	.	2eny/	Che	1r	.	2r	.
4A\	la	4c/	la	.	.	.	.	.	.
2D/	ſe-	2d\	ſe-	4f\	quan-	.	.	2a/	Che
.	.	.	.	4f\	-to	.	.	.	.
!LO:SIC:v:t=custos A	!	!	!	!	!	!	!	!	!
!LO:LB:g=original	!	!	!	!	!	!	!	!	!
4A\	-guo	4c/	-guo	8e/	piu	0r	.	4.a/	quan-
.	.	.	.	8d/	.	.	.	.	.
2c\	piu	4A/	piu	8e\	.	.	.	.	.
.	.	.	.	8f\	.	.	.	8a/	-to
.	.	2G/	mi	2g\	.	.	.	4d/	piu
!LO:N:acc=#	!	!	!	!	!	!	!	!	!
4Bn\	mi	.	.	.	.	.	.	4dd\	la
!	!	!LO:SIC:v:t=custos A	!	!	!	!	!	!LO:SIC:v:t=custos cc	!
!	!	!LO:LB:g=original	!	!	!	!	!	!LO:LB:g=original	!
=11-	=11-	=11-	=11-	=11-	=11-	=11-	=11-	=11-	=11-
8c\	fug-	4A/	fug-	4e/	la	.	.	2.cc\	ſe-
8B-y\	.	.	.	.	.	.	.	.	.
8A\	.	4.F/	.	2a\	ſe-	.	.	.	.
8G\	.	.	.	.	.	.	.	.	.
4Fny/	.	.	.	.	.	.	.	.	.
.	.	8G/	.	.	.	.	.	.	.
4D/	ge	8A/	.	4f\	-guo	.	.	4dd\	-guo
.	.	8F/	.	.	.	.	.	.	.
4E-X/	piu	8G/	.	4e-X/	piu	1r	.	4b-/	piu
.	.	8A/	.	.	.	.	.	.	.
4G\	mi	2B-/	.	4d/	mi	.	.	4b-/	mi
2F/	fug-	.	.	2f\	fug-	.	.	2cc\	fug-
.	.	4A/	.	.	.	.	.	.	.
=12-	=12-	=12-	=12-	=12-	=12-	=12-	=12-	=12-	=12-
2BB-/	-ge	2B-/	-ge	2f\	-ge	2r	.	1dd	-ge
2BB-/	Non	2d\	Non	2f\	Non	2b-/	Non	.	.
2F/	cu-	2c/	cu-	2f\	cu-	2a/	cu-	0r	.
!	!	!	!	!LO:SIC:v:t=custos e	!	!	!	!	!
!	!	!	!	!LO:LB:g=original	!	!	!	!	!
4C/	-ra	4c/	-ra	4eny/	-ra	4g/	-ra	.	.
!	!	!LO:N:acc=#	!	!	!	!	!	!	!
2G\	de	2Bn/	de	2d/	de	2g/	de	.	.
=13-	=13-	=13-	=13-	=13-	=13-	=13-	=13-	=13-	=13-
.	.	.	.	.	.	.	.	.	.
4F/	mici	4c/	mici	4f\	mici	4a/	mi-	.	.
2E-X/	dan-	2e-X\	dan-	2g\	dan-	2b-/	-ci dan-	.	.
!LO:SIC:v:t=custos BB	!	!	!	!	!	!	!	!	!
!LO:LB:g=original	!	!	!	!	!	!	!	!	!
4BB-/	-nie	4d\	-nie	4f\	-nie	4b-/	-nie	1r	.
2B-\	mio	2d\	mio	2f\	mio	2b-/	mio	.	.
4G\	gran	4d\	gran	4g\	gran	4b-/	gran	.	.
=14-	=14-	=14-	=14-	=14-	=14-	=14-	=14-	=14-	=14-
2A\	duo-	2c#X/	duo-	2e/	duo-	2a/	duo-	2r	.
!	!	!LO:SIC:v:t=custos d	!	!	!	!	!	!	!
!	!	!LO:LB:g=original	!	!	!	!	!	!	!
2D/	-lo	4d\	-lo	4f#X\	-lo	4a/	-lo	2dd\	(et)
.	.	4d\	e	4f#\	e	4a/	e	.	.
1r	.	4e-X\	mio	4g\	mio	4g/	mio	4b-/	mio
.	.	4cny/	gran	4g\	gran duo-	4ee\	gran	4cc\	gran
.	.	2d\	duo-	2f#X\	-lo	2dd\	duo-	2a/	duo-
!	!	!	!	!	!	!LO:SIC:v:t=custos dd	!	!	!
!	!	!	!	!	!	!LO:LB:g=original	!	!	!
=15-	=15-	=15-	=15-	=15-	=15-	=15-	=15-	=15-	=15-
*	*	*	*	*	*ij	*	*	*	*
4r	.	4G/	-lo	4g\	gran	2dd\	-lo	4b-/	-lo
*	*	*	*ij	*	*	*	*	*	*ij
4G\	e	4g\	gran	4d/	duo-	.	.	4b-/	(et)
4A\	mio	4eny\	duo-	4c/	-lo	2r	.	4a/	mio
4F/	gran	4f\	-lo	2d/	e	.	.	4a/	gran
1G	duo-	4.e\	e	.	.	1r	.	1g	duo-
.	.	.	.	4.c/	mio	.	.	.	.
.	.	16d\	mio	.	.	.	.	.	.
.	.	16c\	gra	.	.	.	.	.	.
.	.	2d\	duo-	.	.	.	.	.	.
!	!	!	!	!LO:N:acc=#	!	!	!	!	!
.	.	.	.	8Bn/	gra	.	.	.	.
.	.	.	.	4B/	duo-	.	.	.	.
!	!	!	!	!LO:SIC:v:t=custos c	!	!	!	!	!
!	!	!	!	!LO:LB:g=original	!	!	!	!	!
=16-	=16-	=16-	=16-	=16-	=16-	=16-	=16-	=16-	=16-
1C	-lo	1e	-lo	2c/	-lo	4r	.	1g	-lo
*	*	*	*Xij	*	*Xij	*	*	*	*Xij
.	.	.	.	.	.	4cc\	Di	.	.
.	.	.	.	2c/	Di	4cc\	me	.	.
.	.	.	.	.	.	4cc\	ſi	.	.
1r	.	1r	.	4fny\	me	8a/	ri-	0r	.
.	.	.	.	.	.	8b-/	.	.	.
.	.	.	.	4f\	ſi	8cc\	.	.	.
.	.	.	.	.	.	8a/	.	.	.
.	.	.	.	8d/	ri-	8b-/	.	.	.
.	.	.	.	8e/	.	8a/	.	.	.
.	.	.	.	8f\	.	8a/	.	.	.
.	.	.	.	8d/	.	16g/	.	.	.
.	.	.	.	.	.	16fny/	.	.	.
=17-	=17-	=17-	=17-	=17-	=17-	=17-	=17-	=17-	=17-
2r	.	2c/	Di	4e\	.	4g/	.	.	.
.	.	.	.	2f\	.	4a/	.	.	.
2C/	Di	4c/	me	.	.	2g/	.	.	.
.	.	4c/	ſi	4e\	.	.	.	.	.
4F/	me	8A/	ri-	1f	-de	1f	-de	1r	.
.	.	8B-y/	.	.	.	.	.	.	.
4F/	ſi	8c/	.	.	.	.	.	.	.
.	.	8A/	.	.	.	.	.	.	.
!	!	!LO:SIC:v:t=custos B	!	!	!	!	!	!	!
!	!	!LO:LB:g=original	!	!	!	!	!	!	!
8D/	ri-	8B-/	.	.	.	.	.	.	.
8Eny/	.	8A/	.	.	.	.	.	.	.
8F/	.	8A/	.	.	.	.	.	.	.
8D/	.	16G/	.	.	.	.	.	.	.
.	.	16F/	.	.	.	.	.	.	.
!LO:SIC:v:t=custos E	!	!	!	!	!	!	!	!	!
!LO:LB:g=original	!	!	!	!	!	!	!	!	!
=18-	=18-	=18-	=18-	=18-	=18-	=18-	=18-	=18-	=18-
4E/	.	4G/	.	2r	.	1r	.	4r	.
2F/	.	4A/	.	.	.	.	.	4cc\	Di
!	!	!	!	!	!	!	!	!LO:SIC:v:t=custos cc	!
!	!	!	!	!	!	!	!	!LO:LB:g=original	!
.	.	2G/	.	2c/	Du	.	.	4cc\	me
4E/	.	.	.	.	.	.	.	4cc\	ſi
4F/	-ce	4F/	-de	4c/	ne	0r	.	8a/	ri-
.	.	.	.	.	.	.	.	8b-/	.
*	*ij	*	*ij	*	*	*	*	*	*
4F/	Di	4A/	Di	4c/	ſi	.	.	8cc\	.
.	.	.	.	.	.	.	.	8a/	.
4BB-/	me	4F/	me	8d/	ri-	.	.	8b-/	.
.	.	.	.	8e/	.	.	.	8a/	.
4D/	ſi	4F/	ſi	8f\	.	.	.	8a/	.
.	.	.	.	8d/	.	.	.	16g/	.
.	.	.	.	.	.	.	.	16f/	.
=19-	=19-	=19-	=19-	=19-	=19-	=19-	=19-	=19-	=19-
1C	ri-	1c	ri-	4e\	.	.	.	4g/	.
.	.	.	.	4.f\	.	.	.	4a/	.
.	.	.	.	.	.	.	.	2g/	.
.	.	.	.	8e\	.	.	.	.	.
.	.	.	.	4e/	.	.	.	.	.
!	!	!	!	!LO:SIC:v:t=custos f	!	!	!	!	!
!	!	!	!	!LO:LB:g=original	!	!	!	!	!
2F\	-de	2c/	-de	2f\	-de	2r	.	2a/	-de
*	*Xij	*	*Xij	*	*	*	*	*	*
2.F\	(et)	2.c/	(et)	2f\	(et)	2.ff\	(et)	2.a/	(et)
=20-	=20-	=20-	=20-	=20-	=20-	=20-	=20-	=20-	=20-
.	.	.	.	2.f\	per	.	.	.	.
4F/	per	4c/	per	.	.	4ff\	per	4a/	per
!	!	!	!	!	!	!LO:SIC:v:t=custos ff	!	!	!
!	!	!	!	!	!	!LO:LB:g=original	!	!	!
2D/	lei	4d\	lei	.	.	2ff\	lei	2a/	lei
.	.	2A/	ſpaſ-	4d/	lei	.	.	.	.
4C#X/	ſpaſ-	.	.	4e/	ſpaſ-	4ee\	ſpaſ-	4a/	ſpaſ-
4D/	-mo e	4A/	-mo e	4f\	-mo e	4dd\	-mo e	4a/	-mo e
2A\	mo-	2A/	mo-	2e/	mo-	2cc#X\	mo-	2a/	mo-
!	!	!	!	!	!	!	!	!LO:SIC:v:t=custos f	!
!	!	!	!	!	!	!	!	!LO:LB:g=original	!
=21-	=21-	=21-	=21-	=21-	=21-	=21-	=21-	=21-	=21-
1D	-ro	1A	-ro	1d	-ro	0dd	-ro	1f#X	-ro
2r	.	2r	.	2r	.	.	.	2r	.
2D/	A-	2d\	A-	2f#X\	A-	.	.	2a/	A-
!	!	!LO:SIC:v:t=custos d	!	!	!	!	!	!	!
!	!	!LO:LB:g=original	!	!	!	!	!	!	!
=22-	=22-	=22-	=22-	=22-	=22-	=22-	=22-	=22-	=22-
!	!	!	!	!	!	!	!	!LO:N:acc=#	!
2G\	-mor	2d\	-mor	2g\	-mor	1r	.	2bn/	-mor
!LO:SIC:v:t=custos C	!	!	!	!	!	!	!	!	!
!LO:LB:g=original	!	!	!	!	!	!	!	!	!
4Cny/	ſe	4e\	ſe	4g\	ſe	.	.	2cc\	ſe
4.c\	giu-	8g\	giu-	8e/	giu-	.	.	.	.
.	.	8f\	.	8d/	.	.	.	.	.
.	.	8e\	.	8e\	.	1r	.	2.cc\	giuſ-
8B-\	.	8d\	.	8fny\	.	.	.	.	.
8A\	.	2e\	.	2g\	.	.	.	.	.
8G\	.	.	.	.	.	.	.	.	.
4A\	.	.	.	.	.	.	.	.	.
4A\	-ſto	4c/	-ſto	4f\	-ſto	.	.	4cc\	-to
=23-	=23-	=23-	=23-	=23-	=23-	=23-	=23-	=23-	=23-
2G\	ſei	4d\	ſei	2g\	ſei	4r	.	4b-y/	ſei
.	.	4.d\	libe-	.	.	4.dd\	libe-	4b-/	libe-
2r	.	.	.	2r	.	.	.	4a/	-ra
.	.	8d\	-ra	.	.	8dd\	-ra	.	.
.	.	4e-X\	il	.	.	4b-\	il	4g/	il
2r	.	2c/	co-	2r	.	2ee-X\	co-	2cc\	co-
4r	.	4g\	-re	4r	.	2dd\	-re	4b-\	-re
*	*	*	*	*	*	*	*	*	*ij
4.D/	li-	4.f\	li-	4.d/	li-	.	.	4.a/	li-
=24-	=24-	=24-	=24-	=24-	=24-	=24-	=24-	=24-	=24-
.	be-	.	-be-	.	be-	1r	.	.	-be-
8D/	-ra	8f\	-ra	8d/	-ra	.	.	8a/	-ra
4BB-/	il	4d\	il	4d/	il	.	.	4b-/	il
!	!	!	!	!LO:SIC:v:t=custos c	!	!	!	!	!
!	!	!	!	!LO:LB:g=original	!	!	!	!	!
2E-X/	co-	2G/	co-	2c/	co-	.	.	2g/	co-
!	!	!LO:SIC:v:t=custos A	!	!	!	!	!	!	!
!	!	!LO:LB:g=original	!	!	!	!	!	!	!
4D/	-re	4A/	-re	4d/	-re	4r	.	4fny/	-re
*	*ij	*	*ij	*	*ij	*	*	*	*Xij
4.D/	libe-	4.d\	libe-	4.f\	libe-	4.dd\	libe-	4.a/	libe-
8D/	-ra	8d\	-ra	8f\	-ra	8dd\	-ra	8a/	-ra
4D/	il	4d\	il	4d/	il	4ff\	il	4a/	il
!	!	!	!	!	!	!	!	!LO:SIC:v:t=custos a	!
!	!	!	!	!	!	!	!	!LO:LB:g=original	!
=25-	=25-	=25-	=25-	=25-	=25-	=25-	=25-	=25-	=25-
2A\	co-	2c#X/	co-	2e/	co-	2eeny\	co-	2a/	co-
!LO:SIC:v:t=custos D	!	!	!	!	!	!	!	!	!
!LO:LB:g=original	!	!	!	!	!	!	!	!	!
2D/	-re	2d\	-re	2f#X\	-re	2dd\	-re	2a/	-re
*	*Xij	*	*Xij	*	*Xij	*	*	*	*
1r	.	2r	.	2r	.	2r	.	2r	.
.	.	2cny/	O	2g\	O	2ee\	O	2cc\	O
!	!	!	!	!	!	!LO:SIC:v:t=custos ff	!	!	!
!	!	!	!	!	!	!LO:LB:g=original	!	!	!
=26-	=26-	=26-	=26-	=26-	=26-	=26-	=26-	=26-	=26-
0r	.	4.f\	ſciog-	4.a\	ſciog-	4.ff\	ſciog-	4.cc\	ſciog-
.	.	8eny\	-li	8g\	-li	8gg\	-li	8cc\	-li
.	.	4f\	la	4a\	la	4ff\	la	4cc\	la
!	!	!	!	!	!	!	!	!LO:N:acc=#	!
.	.	4g\	cate-	4g\	cate-	4dd\	cate-	4bn/	cate-
.	.	2.c/	-na	2.g\	-na	2.ee\	-na	2.cc\	-na
.	.	4A/	in	4a\	in	4ee\	in	4cc\	in
=27-	=27-	=27-	=27-	=27-	=27-	=27-	=27-	=27-	=27-
1r	.	4c/	ch`io	4g\	ch`io	4ee\	ch`io	4cc\	ch`io
.	.	4d\	mi	4fny\	mi	4ff\	mi	4a/	mi
.	.	2B-/	tro-	2g\	tro-	2dd\	tro-	2d/	tro-
2r	.	2A/	-uo	2a\	-uo	2cc#X\	-uo	2e/	-uo
2.D/	Ch`io	1A/	Ch`io	2.d/	Ch`io	4r	.	2.a/	Ch`io
.	.	.	.	.	.	2ff\	Ch`io	.	.
=28-	=28-	=28-	=28-	=28-	=28-	=28-	=28-	=28-	=28-
.	.	.	.	.	.	.	.	.	.
4D/	non	.	.	4d/	non	4ff\	non	4a/	non
!	!	!	!	!LO:SIC:v:t=custos c	!	!	!	!	!
!	!	!	!	!LO:LB:g=original	!	!	!	!	!
2F/	poſ-	2A/	non	2c/	poſ-	2ff\	poſ-	2a/	poſ-
!	!	!LO:SIC:v:t=custos G	!	!	!	!	!	!	!
!	!	!LO:LB:g=original	!	!	!	!	!	!	!
2C/	-ſo	2G/	poſ-	2c/	-ſo	2ee-X\	-ſo	2cc\	-ſo
2C/	ſof-	1c\	-ſo	2c/	ſof-	2ee-\	ſof-	2g/	ſof-
=29-	=29-	=29-	=29-	=29-	=29-	=29-	=29-	=29-	=29-
1G	-feir	.	.	2d/	-feir	1dd	-feir	2g/	-feir
!	!	!	!	!	!	!	!	!LO:SIC:v:t=custos g	!
!	!	!	!	!	!	!	!	!LO:LB:g=original	!
.	.	2B-/	ſof-	2.d/	tan-	.	.	2g/	tan-
1D	tan-	2A/	-feir	.	.	2r	.	2.f#X/	-to
.	.	.	.	4d/	-to	.	.	.	.
.	.	2A/	tan-	2d/	mar-	2.dd\	tan-	.	.
.	.	.	.	.	.	.	.	4g/	.
=30-	=30-	=30-	=30-	=30-	=30-	=30-	=30-	=30-	=30-
2F#X/	-to	2A/	-to	0d	-to-	.	.	2a/	.
.	.	.	.	.	.	4dd\	-to	.	.
!	!	!	!	!	!	!LO:SIC:v:t=custos dd	!	!	!
!	!	!	!	!	!	!LO:LB:g=original	!	!	!
2G\	mar-	2B-/	mar-	.	.	2dd\	mor-	1g	mar-
1D	-to-	1A	-to-	.	.	1dd	-to-	.	.
.	.	.	.	.	.	.	.	2f#X/	-to-
=31-	=31-	=31-	=31-	=31-	=31-	=31-	=31-	=31-	=31-
!	!	!	!	!	!	!LO:N:acc=#	!	!	!
1G	-ro	1G	-ro	1d	-ro	1bn	-ro	1g	-ro
2r	.	2r	.	2r	.	1r	.	2r	.
2Fny/	O	2c/	O	2f\	O	.	.	2a/	O
=32-	=32-	=32-	=32-	=32-	=32-	=32-	=32-	=32-	=32-
4.B-\	ſciog-	4.d\	ſciog-	4.f\	ſciog-	1r	.	4.b-/	ſciog-
8A\	-li	8c/	-li	8f\	-li	.	.	8cc\	-li
!LO:SIC:v:t=custos B	!	!	!	!	!	!	!	!	!
!LO:LB:g=original	!	!	!	!	!	!	!	!	!
4B-\	la	4d\	la	4f\	la	.	.	4b-/	la
4c\	cate-	4c/	cate-	4e/	cate-	.	.	4g/	cate-
2F/	-na	2c/	-na	2f\	-na	2r	.	2a/	-na
2F/	.	4c/	.	4f\	.	4r	.	4a/	.
*	*	*	*ij	*	*	*	*	*	*
.	.	4c/	O	4f\	O	4ff\	O	4cc\	O
=33-	=33-	=33-	=33-	=33-	=33-	=33-	=33-	=33-	=33-
0r	.	4.f\	ſciog-	4.a\	ſciog-	4.ff\	ſciog-	4.cc\	ſciog-
.	.	8e\	-li	8g\	-li	8gg\	-li	8cc\	-li
!	!	!LO:SIC:v:t=custos f	!	!LO:SIC:v:t=custos a	!	!	!	!	!
!	!	!LO:LB:g=original	!	!LO:PB:g=original	!	!	!	!	!
.	.	4f\	la	4a\	la	4ff\	la	4cc\	la
!	!	!	!	!	!	!	!	!LO:N:acc=#	!
.	.	4g\	ca-	4g\	ca-	4dd\	ca-	4bn\	ca-
!	!	!	!	!	!	!	!	!LO:SIC:v:t=custos cc	!
!	!	!	!	!	!	!	!	!LO:LB:g=original	!
.	.	2.c/	-tena	2.g\	-tena	2.eeny\	-tena	2.cc\	-tena
*	*	*	*Xij	*	*	*	*	*	*
.	.	4A/	in	4a\	in	4ee\	in	4cc\	in
=34-	=34-	=34-	=34-	=34-	=34-	=34-	=34-	=34-	=34-
1r	.	4c/	ch`io	4g\	ch`io	4ee\	ch`io	4cc\	ch`io
.	.	4d\	mi	4f\	mi	4ff\	mi	4a/	mi
.	.	2B-/	tro-	2g\	tro-	2dd\	tro-	2d/	tro-
2r	.	2A/	-uo	2a\	-uo	2cc#X\	-uo	2e/	-uo
2.D/	Ch`io	1A/	Ch`io	2.d/	Ch`io	4r	.	2.a/	Ch`io
.	.	.	.	.	.	2ff\	Ch`io	.	.
=35-	=35-	=35-	=35-	=35-	=35-	=35-	=35-	=35-	=35-
.	.	.	.	.	.	.	.	.	.
4D/	non	.	.	4d/	non	4ff\	non	4a/	non
!	!	!	!	!	!	!LO:SIC:v:t=custos ff	!	!	!
!	!	!	!	!	!	!LO:LB:g=original	!	!	!
2F/	poſ-	2A/	non	2c/	poſ-	2ff\	poſ-	2a/	poſ-
2C/	-ſo	2G/	poſ-	2c/	-ſo	2ee-X\	-ſo	2cc\	-ſo
2C/	ſof-	1c\	-ſo	2c/	ſof-	2ee-\	ſof-	2g/	ſof-
=36-	=36-	=36-	=36-	=36-	=36-	=36-	=36-	=36-	=36-
1G	-feir	.	.	2d/	-feir	1dd	-feir	2g/	-feir
.	.	2B-/	ſof-	2.d/	tan-	.	.	2g/	tan-
1D	tan-	2A/	-feir	.	.	2r	.	2.f#X/	-to
.	.	.	.	4d/	-to	.	.	.	.
.	.	2A/	tan-	2d/	mar-	2.dd\	tan-	.	.
.	.	.	.	.	.	.	.	4g/	.
=37-	=37-	=37-	=37-	=37-	=37-	=37-	=37-	=37-	=37-
2F#X/	-to	2A/	-to	0d	-to-	.	.	2a/	.
.	.	.	.	.	.	4dd\	-to	.	.
2G\	mar-	2B-/	mar-	.	.	2dd\	mar-	1g	mar-
1D	-to-	1A	-to-	.	.	1dd	-to-	.	.
.	.	.	.	.	.	.	.	2f#X/	-to-
=38-	=38-	=38-	=38-	=38-	=38-	=38-	=38-	=38-	=38-
!	!	!	!	!	!	!LO:N:acc=#	!	!	!
00G	-ro.	00G	-ro.	00d	-ro.	00bn	-ro.	00g	-ro.
=39-	=39-	=39-	=39-	=39-	=39-	=39-	=39-	=39-	=39-
.	.	.	.	.	.	.	.	.	.
=||	=||	=||	=||	=||	=||	=||	=||	=||	=||
*-	*-	*-	*-	*-	*-	*-	*-	*-	*-
!!!system-decoration: [(s1,s2,s3,s4,s5)]
!!!ENC: Filip Voros
!!!END: 2022-07-07
!!!ENC: Urszula Świątek
!!!END: 2022-07-29
!!!YEC: Copyright 2022 Narodowy Instytut Fryderyka Chopina (https://polishscores.org)
!!!YEM: Licence CC BY 4.0 (https://creativecommons.org/licenses/by/4.0)
